X: 42555
T: When Mud Gets In Your Eyes
R: jig
M: 6/8
K: Gmajor
dgd BdB|GBG D2 B,|DD/E/F GAB|cBc A2 B|
cec AcA|F/G/AF D2 D|DFA d^c=c|BGE D2 B/c/|
dgd B/c/dB|GBG D2 B,|G,B,D GB/c/d|e3- e2 f|
gfe c2 g|ed^c d2 G|DF/G/A cAF|G3- G2||
dgd BGB|dB/c/d g2 B|GB/c/d GdB|c3- c2 A|
cec Ac/B/A|FAF D2 d|dF/G/A d^c=c|B3- B2 c|
dgd BGB|dBd g2 B|dBd gf=f|e3- e2 f|
gfe c2 g|ed^c d2 G|AA/B/c def|g3- g2||

